packages/core/src/svgs/you.svg

<svg width="24" height="24" viewBox="0 0 24 24" fill="none" xmlns="http://www.w3.org/2000/svg">
<g clip-path="url(#clip0_31_21146)">
<path d="M0 0H24V24H0V0Z" fill="url(#paint0_linear_31_21146)"/>
<path d="M6.85718 6.85693H11.5715V9.42836H9.00003V14.3741C9.00003 15.1026 10.2857 16.6284 12 16.7141C13.7143 16.7998 15 15.1841 15 14.3741V8.14265H13.7143V7.71408H15.4286V14.3741C15.4286 15.5184 13.9457 17.1426 12 17.1426C10.0543 17.1426 8.57146 15.4284 8.57146 14.3741V8.99979H11.1429V7.2855H7.28575V14.5284C7.28575 15.7198 8.57146 18.4284 12 18.4284C15.4286 18.4284 16.7143 16.0069 16.7143 14.5284V7.04551H17.1429V14.5284C17.1429 16.1869 15.6772 18.9084 12 18.8569C8.32289 18.8055 6.85718 16.1141 6.85718 14.5284V6.85693Z" fill="white"/>
<path d="M16.2858 6.85693H12.4286V9.42836H14.1429V14.1041C14.1429 14.6012 13.4401 15.8912 12.0001 15.8569C10.5601 15.8226 9.85721 14.6912 9.85721 14.1041V10.3541H9.42864V14.1041C9.42864 15.1669 10.5729 16.2769 12.0001 16.2855C13.4272 16.2941 14.5715 15.0512 14.5715 14.1041V8.99979H12.8572V7.28551H15.8572V14.1041C15.8402 14.5818 15.7283 15.0514 15.5279 15.4855C15.3274 15.9195 15.0426 16.3093 14.6899 16.632C14.3372 16.9548 13.9238 17.2041 13.4738 17.3653C13.0237 17.5266 12.546 17.5966 12.0686 17.5712C9.24007 17.5712 8.14293 15.2441 8.14293 14.1041V8.14265H10.2858V7.71408H7.71436V14.1041C7.71436 15.6898 8.96578 18.0169 12.0686 17.9998C15.1715 17.9826 16.2858 15.5355 16.2858 14.1041V6.85693Z" fill="white"/>
<path d="M9.64714 10.4784C9.80809 10.4784 9.93857 10.3479 9.93857 10.1869C9.93857 10.026 9.80809 9.89551 9.64714 9.89551C9.48619 9.89551 9.35571 10.026 9.35571 10.1869C9.35571 10.3479 9.48619 10.4784 9.64714 10.4784Z" fill="white"/>
<path d="M10.3329 8.20297C10.4939 8.20297 10.6244 8.0725 10.6244 7.91155C10.6244 7.75059 10.4939 7.62012 10.3329 7.62012C10.172 7.62012 10.0415 7.75059 10.0415 7.91155C10.0415 8.0725 10.172 8.20297 10.3329 8.20297Z" fill="white"/>
<path d="M13.6628 8.20297C13.8237 8.20297 13.9542 8.0725 13.9542 7.91155C13.9542 7.75059 13.8237 7.62012 13.6628 7.62012C13.5018 7.62012 13.3713 7.75059 13.3713 7.91155C13.3713 8.0725 13.5018 8.20297 13.6628 8.20297Z" fill="white"/>
<path d="M16.9328 7.43979C17.0937 7.43979 17.2242 7.30931 17.2242 7.14836C17.2242 6.98741 17.0937 6.85693 16.9328 6.85693C16.7718 6.85693 16.6414 6.98741 16.6414 7.14836C16.6414 7.30931 16.7718 7.43979 16.9328 7.43979Z" fill="white"/>
</g>
<defs>
<linearGradient id="paint0_linear_31_21146" x1="3.53143" y1="4.98429" x2="20.8371" y2="19.7143" gradientUnits="userSpaceOnUse">
<stop stop-color="#A81ED5"/>
<stop offset="1" stop-color="#4300D0"/>
</linearGradient>
<clipPath id="clip0_31_21146">
<rect width="24" height="24" fill="white"/>
</clipPath>
</defs>
</svg>

<svg xmlns="http://www.w3.org/2000/svg" width="24" height="24" fill="none" viewBox="0 0 24 24"><g clip-path="url(#a)"><path fill="url(#b)" d="M0 0h24v24H0z"/><path fill="#fff" d="M6.857 6.857h4.715v2.571H9v4.946c0 .729 1.286 2.254 3 2.34s3-1.53 3-2.34V8.143h-1.286v-.429h1.715v6.66c0 1.144-1.483 2.769-3.429 2.769s-3.429-1.715-3.429-2.769V9h2.572V7.285H7.286v7.243c0 1.192 1.285 3.9 4.714 3.9s4.714-2.421 4.714-3.9V7.046h.429v7.482c0 1.659-1.466 4.38-5.143 4.329s-5.143-2.743-5.143-4.329z"/><path fill="#fff" d="M16.286 6.857h-3.857v2.571h1.714v4.676c0 .497-.703 1.787-2.143 1.753s-2.143-1.166-2.143-1.753v-3.75H9.43v3.75c0 1.063 1.144 2.173 2.571 2.182s2.572-1.235 2.572-2.182V9h-1.715V7.286h3v6.818a3.6 3.6 0 0 1-3.788 3.467c-2.829 0-3.926-2.327-3.926-3.467V8.143h2.143v-.429H7.714v6.39c0 1.586 1.252 3.913 4.355 3.896 3.102-.017 4.217-2.464 4.217-3.896z"/><path fill="#fff" d="M9.647 10.478a.291.291 0 1 0 0-.583.291.291 0 0 0 0 .583M10.333 8.203a.291.291 0 1 0 0-.583.291.291 0 0 0 0 .583M13.663 8.203a.291.291 0 1 0 0-.583.291.291 0 0 0 0 .583M16.933 7.44a.291.291 0 1 0 0-.583.291.291 0 0 0 0 .583"/></g><defs><linearGradient id="b" x1="3.531" x2="20.837" y1="4.984" y2="19.714" gradientUnits="userSpaceOnUse"><stop stop-color="#A81ED5"/><stop offset="1" stop-color="#4300D0"/></linearGradient><clipPath id="a"><path fill="#fff" d="M0 0h24v24H0z"/></clipPath></defs></svg>
